X: 1
T: Thalassaki Mou   [Cm]
T: My Little Sea
O: Greece
Z: 2019 by John Chambers <jc@trillian.mit.edu>
S: Pinewoods Collection
M: 7/8
L: 1/8
K: Cm
"^I"|: AGF |\
"Cm"E2D CB, "Bb"CD | "Eb"E2F GA GF | "Fm"EDF "Bb"EF DB, |1 "Cm"C3z :|2 "Cm"C3 C2 !Fine!z2 |]
"A"|:\
"Cm"C3 "Fm"~F2 EF | "Cm"G3 zA GF | "Bb"F2F ED CD | "Eb"E3- E2 ~DC | "Cm"~E2D C2 z2 :|
"B"|:\
"Fm"F3 ~F2 EF | "Cm"G2F ~E2 DC | C3 G2 {A}GF | "Bb"FEF "Cm"ED C2 | "Bb"D2F EF DB, |1 "Cm"C3 zCDE :|2 "Cm"C3 z |]
"C"|: AGF | "Cm"E2D CB, "Bb"CD | "Eb"E2F GA GF | "Fm"EDF "Bb"EF DB, | "Cm"C3z :|
w: Tha-l\'as-sa ky\'al-mi-ro** ne-r\'o** na se xe-h\'a-*so dhen* bo-*r\'o.

%%sep 1 1 500
%%sep 1 1 500

